X:19
T:Athole House
R:Reel
B:The Athole Collection
M:C|
L:1/8
K:F
f|cFAF cF d/c/B/A/|cFAF EGGf|cFAF cAfc|d/c/B/A/ cC DFF:|
c|~f2 a/g/f/e/ fcAc|Fc d/c/B/A/ BGGc|~f2 a/g/f/e/ fcAc|d/e/f e/f/g cf~fc|
fcaf ecbg|afcf eggb|afcf dBGB|AFcC DF~F||

